X:1
T:Waring, 76.76 D
T:Joseph Barnby (1838-1896)
T:Waring, 76.76 D
T:Public Domain
C:Joseph Barnby (1838-1896)
Z:Public Domain
%%score ( 1 2 ) 3
L:1/8
M:4/4
K:Eb
V:1 treble 
V:2 treble 
V:3 bass 
V:1
 [EB]2 | [EB]2 [EA]2 [DG]2 [DF]2 | [DF]4 E2 [Ec]2 | F2 z c [FB]2 [FA]2 | [EG]6 [Ge]2 | %5
 [Fd]2 [Dc]2 [EB]2 [=Ec]2 | [=EB]4 [FA]2 [=B,G]2 | [CF]2 [CE]2 D2 [CE]2 | [DF]6 [DF]2 | %9
 [EG]2 [EG]2 [FG]2 [FG]2 | [FG]4 [=Ec]2 [EG]2 | [FA]2 [FA]2 [GB]2 [Ac]2 | [Ad]6 [Ad]2 | %13
 [Af]3 [Af] [Ge]2 [F=B]2 | [Fd]4 [Ec]2 [EF]2 | [EG]2 [Ec]2 [DB]2 [B,D]2 | [B,E]8 |] %17
V:2
 x2 | x8 | x4 E2 x2 | c3 F2 x3 | x8 | x8 | x8 | x4 D2 x2 | x8 | x8 | x8 | x8 | x8 | x8 | x8 | x8 | %16
 x8 |] %17
V:3
 [E,G,]2 | [E,C]2 [E,C]2 [B,,B,]2 [B,,A,]2 | [C,A,]4 [C,G,]2 [C,A,]2 | %3
 [D,A,]2 [D,F,]2 [D,B,]2 [D,B,]2 | [E,B,]6 [E,B,]2 | [F,A,]2 [F,A,]2 [G,B,]2 [C,C]2 | %6
 [F,A,]4 [F,C]2 G,2 | [C,A,]2 [C,G,]2 [F,=A,]2 [F,A,]2 | [B,,B,]6 [B,,B,]2 | %9
 [E,B,]2 [E,B,]2 [_D,B,]2 [D,B,]2 | [C,B,]4 [C,G,]2 [C,C]2 | [F,C]2 [F,C]2 [F,F]2 [F,E]2 | %12
 [B,,D]6 [B,,D]2 | [=B,,D]3 [B,,D] [C,E]2 [G,,D]2 | [A,,=B,]4 [A,,C]2 [A,,C]2 | %15
 [B,,B,]2 [B,,G,]2 [B,,F,]2 [B,,A,]2 | [E,G,]8 |] %17

